icons/svg/functional-icons/hazard_erosion.svg

<?xml version="1.0" encoding="UTF-8" standalone="no"?>
<!-- Created with Inkscape (http://www.inkscape.org/) -->

<svg
   xmlns:dc="http://purl.org/dc/elements/1.1/"
   xmlns:cc="http://creativecommons.org/ns#"
   xmlns:rdf="http://www.w3.org/1999/02/22-rdf-syntax-ns#"
   xmlns:svg="http://www.w3.org/2000/svg"
   xmlns="http://www.w3.org/2000/svg"
   xmlns:sodipodi="http://sodipodi.sourceforge.net/DTD/sodipodi-0.dtd"
   xmlns:inkscape="http://www.inkscape.org/namespaces/inkscape"
   version="1.0"
   width="580"
   height="580"
   id="svg2"
   sodipodi:version="0.32"
   inkscape:version="0.91 r13725"
   sodipodi:docname="hazard_erosion.svg"
   inkscape:output_extension="org.inkscape.output.svg.inkscape">
  <metadata
     id="metadata2975">
    <rdf:RDF>
      <cc:Work
         rdf:about="">
        <dc:format>image/svg+xml</dc:format>
        <dc:type
           rdf:resource="http://purl.org/dc/dcmitype/StillImage" />
        <cc:license
           rdf:resource="http://web.resource.org/cc/PublicDomain" />
        <dc:language>en</dc:language>
        <dc:title></dc:title>
      </cc:Work>
    </rdf:RDF>
  </metadata>
  <sodipodi:namedview
     inkscape:window-height="1051"
     inkscape:window-width="1920"
     inkscape:pageshadow="2"
     inkscape:pageopacity="0.0"
     guidetolerance="10.0"
     gridtolerance="10.0"
     objecttolerance="10.0"
     borderopacity="1.0"
     bordercolor="#666666"
     pagecolor="#ffffff"
     id="base"
     inkscape:zoom="0.92167712"
     inkscape:cx="90.937301"
     inkscape:cy="268.72125"
     inkscape:window-x="0"
     inkscape:window-y="0"
     inkscape:current-layer="svg2"
     showgrid="false"
     inkscape:window-maximized="1" />
  <defs
     id="defs4">
    <inkscape:perspective
       sodipodi:type="inkscape:persp3d"
       inkscape:vp_x="0 : 290 : 1"
       inkscape:vp_y="0 : 1000 : 0"
       inkscape:vp_z="580 : 290 : 1"
       inkscape:persp3d-origin="290 : 193.33333 : 1"
       id="perspective2441" />
    <inkscape:perspective
       id="perspective3452"
       inkscape:persp3d-origin="30 : 20 : 1"
       inkscape:vp_z="60 : 30 : 1"
       inkscape:vp_y="0 : 1000 : 0"
       inkscape:vp_x="0 : 30 : 1"
       sodipodi:type="inkscape:persp3d" />
    <symbol
       viewBox="244.5 110 489 219.9"
       id="symbol-university">
      <path
         id="path4460"
         d="M79,43l57,119c0,0,21-96,104-96s124,106,124,106l43-133l82-17L0,17L79,43z" />
      <path
         id="path4462"
         d="M94,176l-21,39"
         stroke-width="20"
         stroke="#000000"
         fill="none" />
      <path
         id="path4464"
         d="M300,19c0,10.5-22.6,19-50.5,19S199,29.5,199,19s22.6-19,50.5-19S300,8.5,300,19z" />
      <path
         id="path4466"
         d="M112,216l-16-38L64,88c0,0-9-8-4-35s16-24,16-24"
         stroke-width="20"
         stroke="#000000"
         ill="none" />
    </symbol>
    <inkscape:perspective
       id="perspective4471"
       inkscape:persp3d-origin="372.04724 : 350.78739 : 1"
       inkscape:vp_z="744.09448 : 526.18109 : 1"
       inkscape:vp_y="0 : 1000 : 0"
       inkscape:vp_x="0 : 526.18109 : 1"
       sodipodi:type="inkscape:persp3d" />
    <inkscape:perspective
       id="perspective4668"
       inkscape:persp3d-origin="6 : 4 : 1"
       inkscape:vp_z="12 : 6 : 1"
       inkscape:vp_y="0 : 1000 : 0"
       inkscape:vp_x="0 : 6 : 1"
       sodipodi:type="inkscape:persp3d" />
    <inkscape:perspective
       id="perspective2469"
       inkscape:persp3d-origin="225 : 120 : 1"
       inkscape:vp_z="450 : 180 : 1"
       inkscape:vp_y="0 : 1000 : 0"
       inkscape:vp_x="0 : 180 : 1"
       sodipodi:type="inkscape:persp3d" />
  </defs>
  <g
     id="g5"
     transform="matrix(1.7470777,0,0,1.7471252,-216.65253,-222.73058)"
     style="fill:#000000;fill-opacity:1;stroke:none">
    <title
       id="title7">Layer 1</title>
    <g
       id="g1327"
       style="fill:#000000;fill-opacity:1;stroke:none" />
    <path
       style="fill:#000000;fill-opacity:1;fill-rule:evenodd;stroke:none"
       d="M 288.21875,150.3811 A 32.25812,32.25812 0 0 0 262,166.47485 l -122.9375,212.875 a 32.25812,32.25812 0 0 0 27.90625,48.375 l 246,0.1875 a 32.25812,32.25812 0 0 0 27.96875,-48.375 L 317.875,166.47485 A 32.25812,32.25812 0 0 0 288.21875,150.3811 Z"
       id="path2990"
       inkscape:connector-curvature="0" />
  </g>
  <path
     style="color:#000000;display:inline;overflow:visible;visibility:visible;fill:#fff200;fill-opacity:1;fill-rule:nonzero;stroke:none;marker:none;enable-background:accumulate"
     d="M 74.866648,471.02372 C 70.661779,463.90823 75.540054,450.183 75.540054,450.183 L 275.74202,103.38966 c 0,0 8.67708,-17.018823 16.87775,-16.960811 8.20067,0.05801 17.57483,18.168301 17.57483,18.168301 l 197.82527,342.67643 c 0,0 7.43258,15.49307 3.20786,23.08346 -4.22471,7.59039 -16.38682,8.02322 -16.38682,8.02322 L 94.366753,477.96464 c 0,0 -15.295235,0.17457 -19.500105,-6.94092 z"
     id="path3788"
     inkscape:connector-curvature="0"
     sodipodi:nodetypes="zcczcczccz" />
  <path
     style="fill:#000000;fill-opacity:1;stroke:none"
     d="m 353.17814,210.04387 -14.7992,8.26352 -13.59725,68.88768 c 0,0 7.28142,37.58709 -4.20688,62.65248 -11.48832,25.0654 0.0144,44.907 -40.7166,53.26213 -13.29398,2.72697 -34.61458,31.33129 -41.91857,39.74 -7.85136,9.03888 -9.64609,14.15306 -9.76597,19.00609 l 270.51749,0.30049 -145.51302,-252.11239 z"
     id="path3756"
     inkscape:connector-curvature="0" />
  <path
     style="color:#000000;display:inline;overflow:visible;visibility:visible;fill:#000000;fill-opacity:1;fill-rule:nonzero;stroke:none;stroke-width:28.30400085;marker:none;enable-background:accumulate"
     d="m 242.27477,402.08546 -34.46491,34.46491 -16.9338,-12.85575 -17.53111,-21.60916 5.75853,-24.32253 28.70638,-10.14238 20.77255,9.13229 z"
     id="path3758"
     inkscape:connector-curvature="0"
     sodipodi:nodetypes="cccccccc" />
  <path
     style="color:#000000;display:inline;overflow:visible;visibility:visible;fill:#000000;fill-opacity:1;fill-rule:nonzero;stroke:none;stroke-width:28.30400085;marker:none;enable-background:accumulate"
     d="m 294.76944,338.95865 -5.7847,17.4633 -23.45827,11.77967 -24.08365,-12.65122 -5.15929,-16.59175 9.49447,-21.56752 19.74847,-7.67542 z"
     id="path3760"
     inkscape:connector-curvature="0"
     sodipodi:nodetypes="cccccccc" />
  <circle
     r="9.9217167"
     cy="242.81584"
     cx="296.06094"
     style="color:#000000;display:inline;overflow:visible;visibility:visible;fill:#000000;fill-opacity:1;fill-rule:nonzero;stroke:none;stroke-width:28.30400085;marker:none;enable-background:accumulate"
     id="path3762" />
  <circle
     r="8.8773251"
     cy="194.7738"
     cx="322.17072"
     style="color:#000000;display:inline;overflow:visible;visibility:visible;fill:#000000;fill-opacity:1;fill-rule:nonzero;stroke:none;stroke-width:28.30400085;marker:none;enable-background:accumulate"
     id="path3764" />
  <path
     style="color:#000000;display:inline;overflow:visible;visibility:visible;fill:#000000;fill-opacity:1;fill-rule:nonzero;stroke:none;stroke-width:28.30400085;marker:none;enable-background:accumulate"
     d="m 272.65408,268.00181 -15.50841,15.50842 -6.41898,-1.38661 -9.08944,-14.12181 4.92662,-11.33749 10.5818,-4.17092 4.01973,0.52603 5.31659,2.59805 z"
     id="path3766"
     inkscape:connector-curvature="0"
     sodipodi:nodetypes="ccccccccc" />
</svg>

<svg width="580" height="580" viewBox="0 0 580 580" fill="none" xmlns="http://www.w3.org/2000/svg">
<path fill-rule="evenodd" clip-rule="evenodd" d="M286.888 40.0039C277.515 40.5055 268.416 43.3401 260.417 48.2504C252.418 53.1607 245.772 59.9912 241.082 68.1217L26.3004 440.041C21.3615 448.604 18.7618 458.316 18.7622 468.201C18.7626 478.087 21.3631 487.798 26.3026 496.361C31.2422 504.924 38.347 512.037 46.9041 516.986C55.4613 521.935 65.1696 524.547 75.0548 524.558L504.836 524.886C514.73 524.894 524.453 522.296 533.025 517.355C541.597 512.413 548.718 505.302 553.67 496.736C558.622 488.17 561.232 478.451 561.238 468.556C561.243 458.662 558.643 448.94 553.7 440.369L338.7 68.1217C333.501 59.1088 325.908 51.7111 316.763 46.7483C307.618 41.7854 297.278 39.4511 286.888 40.0039V40.0039Z" fill="black"/>
<path d="M74.8666 471.024C70.6618 463.908 75.54 450.183 75.54 450.183L275.742 103.39C275.742 103.39 284.419 86.3708 292.62 86.4289C300.82 86.4869 310.195 104.597 310.195 104.597L508.02 447.274C508.02 447.274 515.452 462.767 511.228 470.357C507.003 477.947 494.841 478.38 494.841 478.38L94.3667 477.965C94.3667 477.965 79.0715 478.139 74.8666 471.024V471.024Z" fill="#FFF200"/>
<path d="M353.178 210.044L338.379 218.307L324.782 287.195C324.782 287.195 332.063 324.782 320.575 349.848C309.087 374.913 320.589 394.755 279.858 403.11C266.564 405.837 245.244 434.441 237.94 442.85C230.088 451.889 228.294 457.003 228.174 461.856L498.691 462.156L353.178 210.044V210.044Z" fill="black"/>
<path d="M242.275 402.086L207.81 436.55L190.876 423.695L173.345 402.086L179.103 377.763L207.81 367.621L228.582 376.753L242.275 402.086Z" fill="black"/>
<path d="M294.77 338.959L288.985 356.422L265.527 368.202L241.443 355.551L236.284 338.959L245.778 317.391L265.527 309.716L294.77 338.959Z" fill="black"/>
<path d="M296.061 252.737C301.54 252.737 305.983 248.295 305.983 242.816C305.983 237.336 301.54 232.894 296.061 232.894C290.581 232.894 286.139 237.336 286.139 242.816C286.139 248.295 290.581 252.737 296.061 252.737Z" fill="black"/>
<path d="M322.171 203.651C327.074 203.651 331.048 199.677 331.048 194.774C331.048 189.871 327.074 185.896 322.171 185.896C317.268 185.896 313.293 189.871 313.293 194.774C313.293 199.677 317.268 203.651 322.171 203.651Z" fill="black"/>
<path d="M272.654 268.002L257.146 283.51L250.727 282.123L241.637 268.002L246.564 256.664L257.146 252.493L261.165 253.019L266.482 255.617L272.654 268.002Z" fill="black"/>
</svg>
